X: 11033
T: Dub, The
R: reel
M: 4/4
K: Adorian
A2eA fg~g2|gedB GABG|A2eA fg~g2|gedg eAAG|
A2eA fg~g2|gedB GABc|dBcA BGAF|GEDG EAAG:|:
A3B cBAG|EGdB GABG|A3B cBAG|EGdB BAAG|
A3B cBAG|EGDE ~G3B|dBcA BGAF|GEDG EAAG:|

